portfolio/src/asset/picture_source/project_icon/Software_Tool/IDE/intellij.svg

<svg xmlns="http://www.w3.org/2000/svg" width="48" height="48"><path fill="#f57c00" d="m14.125 35.188-9.687-7.625 4.812-8.938L23.062 24z"/><path fill="#1e88e5" d="m44 14.688-.75 23.125L27.875 44l-9.25-6 13.5-14z"/><path fill="#2962ff" d="M44 14.688 31.812 29.063 26.25 11l5.313-6.375z"/><path fill="#ab47bc" d="M34.688 19.625 23.25 37.188 7.25 43l2.563-9 3.312-11.125z"/><path fill="#e91e63" d="M13.125 22.875 4 19.813 9.813 4l12.5 1.5 12.375 14.125z"/><path fill="#000001" d="M11 11h25v25H11z"/><path fill="#fff" d="M14 31.5h9V33h-9zm6.5-15.625V14h-5v1.875H17v6.5h-1.5v1.875h5v-1.875h-1.341v-6.5zm4.875 8.625c-1.875 0-2.871-1.098-3.25-1.548l1.411-1.605c.255.282.964 1.028 1.839 1.028 1.125 0 1.375-1.125 1.375-1.75V14H29v6.625c0 .624 0 1.625-.75 2.625-.525.7-1.75 1.25-2.875 1.25z"/></svg>

<svg xmlns="http://www.w3.org/2000/svg"  viewBox="0 0 48 48" width="48px" height="48px"><path fill="#f57c00" d="M14.125 35.188L4.438 27.563 9.25 18.625 23.062 24z"/><path fill="#1e88e5" d="M44 14.688L43.25 37.813 27.875 44 18.625 38 32.125 24z"/><path fill="#2962ff" d="M44 14.688L31.812 29.063 26.25 11 31.563 4.625z"/><path fill="#ab47bc" d="M34.688 19.625L23.25 37.188 7.25 43 9.813 34 13.125 22.875z"/><path fill="#e91e63" d="M13.125 22.875L4 19.813 9.813 4 22.313 5.5 34.688 19.625z"/><path fill="#000001" d="M11 11H36V36H11z"/><path fill="#fff" d="M14 31.5H23V33H14zM20.5 15.875L20.5 14 15.5 14 15.5 15.875 17 15.875 17 22.375 15.5 22.375 15.5 24.25 20.5 24.25 20.5 22.375 19.159 22.375 19.159 15.875zM25.375 24.5c-1.875 0-2.871-1.098-3.25-1.548l1.411-1.605c.255.282.964 1.028 1.839 1.028 1.125 0 1.375-1.125 1.375-1.75V14H29v6.625c0 .624 0 1.625-.75 2.625C27.725 23.95 26.5 24.5 25.375 24.5z"/></svg>
